; generated by Slic3r 0.9.8 on 2013-03-12 at 15:27:12

; layer_height = 0.3
; perimeters = 3
; top_solid_layers = 3
; bottom_solid_layers = 3
; fill_density = 0.2
; perimeter_speed = 50
; infill_speed = 100
; travel_speed = 150
; scale = 1
; nozzle_diameter = 0.5
; filament_diameter = 3
; extrusion_multiplier = 1
; perimeters extrusion width = 0.70mm
; infill extrusion width = 0.70mm
; first layer extrusion width = 0.60mm

G28 ; home all axes
G90 ; use absolute coordinates
G21 ; set units to millimeters
G92 E0
M82 ; use absolute distances for extrusion
G1 F1800.000 E-5.00000
G92 E0
G1 Z0.300 F9000.000
G1 X20.830 Y88.020
G1 F1800.000 E5.00000
G1 X101.710 Y27.460 F900.000 E7.48094
G1 X101.970 Y27.270 E7.48884
G1 X102.250 Y27.100 E7.49689
G1 X102.820 Y26.790 E7.51282
G1 X104.250 Y26.190 E7.55090
G1 X104.820 Y25.980 E7.56581
G1 X146.490 Y12.980 E8.63761
G1 X146.930 Y12.860 E8.64881
G1 X147.380 Y12.770 E8.66008
G1 X148.850 Y12.580 E8.69647
G1 X149.690 Y12.520 E8.71715
G1 X179.220 Y12.520 E9.44223
G1 X179.750 Y12.540 E9.45525
G1 X180.540 Y12.650 E9.47484
G1 X181.300 Y12.860 E9.49420
G1 X181.800 Y13.050 E9.50733
G1 X182.280 Y13.270 E9.52030
G1 X182.740 Y13.540 E9.53339
G1 X183.380 Y14.000 E9.55275
G1 X183.960 Y14.540 E9.57220
G1 X184.320 Y14.940 E9.58542
G1 X184.480 Y15.150 E9.59190
G1 X184.780 Y15.580 E9.60477
G1 X185.050 Y16.040 E9.61787
G1 X185.370 Y16.770 E9.63744
G1 X185.610 Y17.530 E9.65701
G1 X185.670 Y17.780 E9.66332
G1 X185.750 Y18.310 E9.67648
G1 X185.780 Y18.570 E9.68291
G1 X185.800 Y19.100 E9.69593
G1 X185.800 Y31.550 E10.00163
G1 X184.870 Y133.040 E12.49372
G1 X184.810 Y133.830 E12.51317
G1 X184.650 Y135.060 E12.54363
G1 X184.530 Y135.740 E12.56058
G1 X184.330 Y136.410 E12.57775
G1 X183.600 Y138.170 E12.62454
G1 X183.450 Y138.470 E12.63277
G1 X183.100 Y139.030 E12.64899
G1 X182.170 Y140.280 E12.68724
G1 X181.780 Y140.750 E12.70224
G1 X181.570 Y140.970 E12.70971
G1 X181.120 Y141.380 E12.72465
G1 X179.900 Y142.310 E12.76232
G1 X179.070 Y142.850 E12.78664
G1 X178.470 Y143.130 E12.80289
G1 X176.870 Y143.780 E12.84530
G1 X134.360 Y157.760 E13.94408
G1 X133.510 Y157.980 E13.96564
G1 X82.930 Y167.400 E15.22894
G1 X82.440 Y167.450 E15.24103
G1 X81.960 Y167.470 E15.25283
G1 X24.770 Y167.470 E16.65707
G1 X24.240 Y167.450 E16.67009
G1 X23.450 Y167.340 E16.68968
G1 X22.690 Y167.130 E16.70904
G1 X22.190 Y166.940 E16.72217
G1 X21.710 Y166.720 E16.73514
G1 X21.250 Y166.450 E16.74823
G1 X20.820 Y166.150 E16.76111
G1 X20.610 Y165.990 E16.76759
G1 X20.210 Y165.630 E16.78080
G1 X19.670 Y165.050 E16.80026
G1 X19.510 Y164.840 E16.80674
G1 X19.210 Y164.410 E16.81962
G1 X18.940 Y163.950 E16.83271
G1 X18.720 Y163.470 E16.84568
G1 X18.530 Y162.970 E16.85881
G1 X18.320 Y162.210 E16.87817
G1 X18.210 Y161.420 E16.89776
G1 X18.190 Y160.890 E16.91078
G1 X18.190 Y93.290 E18.57063
G1 X18.210 Y92.740 E18.58414
G1 X18.240 Y92.460 E18.59106
G1 X18.400 Y91.640 E18.61157
G1 X18.560 Y91.110 E18.62517
G1 X18.890 Y90.350 E18.64551
G1 X19.160 Y89.860 E18.65925
G1 X19.630 Y89.180 E18.67954
G1 X20.190 Y88.560 E18.70006
G1 X20.763 Y88.075 E18.71849
G1 X20.830 Y88.020 E18.72062
G1 F1800.000 E13.72062
G92 E0
G1 X26.091 Y114.629 F9000.000
G1 F1800.000 E5.00000
G1 X26.091 Y97.371 F900.000 E5.42373
G1 X52.849 Y97.371 E6.08072
G1 X52.849 Y114.629 E6.50445
G1 X26.178 Y114.629 E7.15932
G1 X26.091 Y114.629 E7.16145
G1 X26.670 Y114.050 F9000.000
G1 X26.670 Y97.950 F900.000 E7.55677
G1 X52.270 Y97.950 E8.18535
G1 X52.270 Y114.050 E8.58067
G1 X26.757 Y114.050 E9.20712
G1 X26.670 Y114.050 E9.20925
G1 X26.091 Y114.050 F9000.000
G1 F1800.000 E4.20925
G92 E0
G1 X53.970 Y143.825 F9000.000
G1 F1800.000 E5.00000
G1 X79.570 Y143.825 F900.000 E5.62858
G1 X79.570 Y160.175 E6.03004
G1 X53.970 Y160.175 E6.65862
G1 X53.970 Y143.912 E7.05795
G1 X53.970 Y143.825 E7.06008
G1 X53.970 Y143.246 F9000.000
G1 X52.770 Y143.825
G1 X52.770 Y160.175 F900.000 E7.46154
G1 X27.170 Y160.175 E8.09012
G1 X27.170 Y143.825 E8.49158
G1 X52.683 Y143.825 E9.11803
G1 X52.770 Y143.825 E9.12016
G1 X53.349 Y143.825 F9000.000
G1 F1800.000 E4.12016
G92 E0
G1 X25.927 Y142.668 F9000.000
G1 F1800.000 E5.00000
G1 X25.927 Y115.207 F900.000 E5.67427
G1 X53.013 Y115.207 E6.33934
G1 X53.013 Y115.457 E6.34548
G1 X65.013 Y115.457 E6.64013
G1 X65.013 Y116.543 E6.66679
G1 X53.013 Y116.543 E6.96143
G1 X53.013 Y142.668 E7.60291
G1 X26.014 Y142.668 E8.26584
G1 X25.927 Y142.668 E8.26797
G1 F1800.000 E3.26797
G92 E0
G1 X53.013 Y96.793 F9000.000
G1 F1800.000 E5.00000
G1 X25.927 Y96.793 F900.000 E5.66507
G1 X25.927 Y94.457 E5.72242
G1 X53.013 Y94.457 E6.38749
G1 X53.013 Y96.706 E6.44271
G1 X53.013 Y96.793 E6.44484
G1 F1800.000 E1.44484
G92 E0
G1 X53.591 Y93.879 F9000.000
G1 F1800.000 E5.00000
G1 X53.591 Y114.879 F900.000 E5.51563
G1 X65.591 Y114.879 E5.81028
G1 X65.591 Y117.121 E5.86535
G1 X53.591 Y117.121 E6.16000
G1 X53.591 Y142.079 E6.77280
G1 X81.391 Y142.079 E7.45540
G1 X81.391 Y160.321 E7.90334
G1 X80.149 Y160.321 E7.93385
G1 X80.149 Y143.246 E8.35311
G1 X26.591 Y143.246 E9.66815
G1 X26.591 Y160.321 E10.08741
G1 X25.349 Y160.321 E10.11793
G1 X25.349 Y93.879 E11.74937
G1 X53.505 Y93.879 E12.44072
G1 X53.591 Y93.879 E12.44285
G1 X54.170 Y93.300 F9000.000
G1 X54.170 Y114.300 F900.000 E12.95848
G1 X66.170 Y114.300 E13.25313
G1 X66.170 Y117.700 E13.33661
G1 X54.170 Y117.700 E13.63126
G1 X54.170 Y141.500 E14.21565
G1 X81.970 Y141.500 E14.89825
G1 X81.970 Y160.900 E15.37459
G1 X24.770 Y160.900 E16.77908
G1 X24.770 Y93.300 E18.43893
G1 X54.083 Y93.300 E19.15869
G1 X54.170 Y93.300 E19.16082
G1 X53.881 Y93.801 F9000.000
G1 F1800.000 E14.16082
G92 E0
G1 X73.136 Y108.701 F9000.000
G1 F1800.000 E5.00000
G1 X73.690 Y108.062 F540.000 E5.02078
G1 X74.402 Y107.605 E5.04154
G1 X74.618 Y107.541 E5.04708
G1 X75.213 Y107.366 E5.06232
G1 X76.059 Y107.366 E5.08308
G1 X76.871 Y107.604 E5.10385
G1 X77.583 Y108.062 E5.12463
G1 X78.137 Y108.701 E5.14540
G1 X78.488 Y109.470 E5.16617
G1 X78.609 Y110.308 E5.18695
G1 X78.488 Y111.145 E5.20772
G1 X78.137 Y111.915 E5.22848
G1 X77.583 Y112.554 E5.24926
G1 X76.871 Y113.012 E5.27003
G1 X76.059 Y113.250 E5.29080
G1 X75.213 Y113.250 E5.31158
G1 X74.402 Y113.012 E5.33234
G1 X73.690 Y112.554 E5.35312
G1 X73.136 Y111.915 E5.37389
G1 X72.785 Y111.146 E5.39465
G1 X72.664 Y110.308 E5.41543
G1 X72.785 Y109.470 E5.43620
G1 X73.100 Y108.780 E5.45484
G1 X73.136 Y108.701 E5.45697
G1 X73.628 Y109.017 F9000.000
G1 X74.073 Y108.503 F540.000 E5.47366
G1 X74.645 Y108.136 E5.49034
G1 X74.781 Y108.096 E5.49383
G1 X75.297 Y107.945 E5.50703
G1 X75.976 Y107.945 E5.52371
G1 X76.628 Y108.136 E5.54040
G1 X77.200 Y108.504 E5.55709
G1 X77.645 Y109.017 E5.57377
G1 X77.927 Y109.635 E5.59045
G1 X78.024 Y110.308 E5.60715
G1 X77.927 Y110.981 E5.62383
G1 X77.645 Y111.599 E5.64051
G1 X77.200 Y112.112 E5.65721
G1 X76.628 Y112.480 E5.67389
G1 X75.976 Y112.671 E5.69058
G1 X75.296 Y112.671 E5.70727
G1 X74.645 Y112.480 E5.72395
G1 X74.073 Y112.112 E5.74064
G1 X73.628 Y111.599 E5.75733
G1 X73.346 Y110.981 E5.77400
G1 X73.249 Y110.308 E5.79070
G1 X73.346 Y109.635 E5.80738
G1 X73.592 Y109.096 E5.82193
G1 X73.628 Y109.017 E5.82406
G1 X74.120 Y109.333 F9000.000
G1 X74.456 Y108.945 F540.000 E5.83667
G1 X74.887 Y108.668 E5.84927
G1 X74.944 Y108.651 E5.85072
G1 X75.380 Y108.523 E5.86187
G1 X75.893 Y108.523 E5.87447
G1 X76.385 Y108.668 E5.88707
G1 X76.817 Y108.945 E5.89967
G1 X77.153 Y109.333 E5.91228
G1 X77.366 Y109.800 E5.92488
G1 X77.440 Y110.308 E5.93748
G1 X77.366 Y110.816 E5.95008
G1 X77.153 Y111.283 E5.96268
G1 X76.817 Y111.671 E5.97528
G1 X76.385 Y111.948 E5.98789
G1 X75.893 Y112.093 E6.00048
G1 X75.380 Y112.093 E6.01309
G1 X74.887 Y111.948 E6.02569
G1 X74.456 Y111.671 E6.03829
G1 X74.120 Y111.283 E6.05089
G1 X73.906 Y110.816 E6.06349
G1 X73.833 Y110.308 E6.07610
G1 X73.906 Y109.800 E6.08870
G1 X74.084 Y109.412 E6.09916
G1 X74.120 Y109.333 E6.10130
G1 X73.879 Y108.807 F9000.000
G1 F1800.000 E1.10130
G92 E0
G1 X75.213 Y122.366 F9000.000
G1 F1800.000 E5.00000
G1 X76.059 Y122.366 F540.000 E5.02076
G1 X76.871 Y122.604 E5.04154
G1 X77.583 Y123.062 E5.06232
G1 X78.137 Y123.701 E5.08308
G1 X78.488 Y124.470 E5.10385
G1 X78.520 Y124.694 E5.10938
G1 X78.608 Y125.308 E5.12462
G1 X78.488 Y126.145 E5.14540
G1 X78.137 Y126.915 E5.16617
G1 X77.583 Y127.554 E5.18693
G1 X76.871 Y128.011 E5.20771
G1 X76.059 Y128.250 E5.22848
G1 X75.214 Y128.250 E5.24925
G1 X74.402 Y128.011 E5.27003
G1 X73.690 Y127.554 E5.29080
G1 X73.136 Y126.915 E5.31157
G1 X72.785 Y126.145 E5.33233
G1 X72.664 Y125.308 E5.35312
G1 X72.785 Y124.470 E5.37388
G1 X73.136 Y123.701 E5.39465
G1 X73.690 Y123.062 E5.41543
G1 X74.402 Y122.604 E5.43620
G1 X75.130 Y122.391 E5.45483
G1 X75.213 Y122.366 E5.45697
G1 X75.297 Y122.945 F9000.000
G1 X75.976 Y122.945 F540.000 E5.47365
G1 X76.628 Y123.136 E5.49034
G1 X77.200 Y123.504 E5.50703
G1 X77.645 Y124.017 E5.52371
G1 X77.927 Y124.635 E5.54039
G1 X77.948 Y124.776 E5.54389
G1 X78.024 Y125.308 E5.55708
G1 X77.927 Y125.981 E5.57377
G1 X77.645 Y126.599 E5.59046
G1 X77.200 Y127.112 E5.60714
G1 X76.628 Y127.480 E5.62383
G1 X75.976 Y127.671 E5.64051
G1 X75.297 Y127.671 E5.65720
G1 X74.644 Y127.480 E5.67389
G1 X74.073 Y127.112 E5.69058
G1 X73.628 Y126.599 E5.70726
G1 X73.346 Y125.981 E5.72394
G1 X73.249 Y125.308 E5.74064
G1 X73.346 Y124.635 E5.75732
G1 X73.628 Y124.017 E5.77400
G1 X74.073 Y123.503 E5.79069
G1 X74.645 Y123.136 E5.80738
G1 X75.213 Y122.969 E5.82193
G1 X75.297 Y122.945 E5.82406
G1 X75.380 Y123.523 F9000.000
G1 X75.893 Y123.523 F540.000 E5.83666
G1 X76.385 Y123.668 E5.84927
G1 X76.817 Y123.945 E5.86187
G1 X77.153 Y124.333 E5.87447
G1 X77.366 Y124.800 E5.88707
G1 X77.375 Y124.858 E5.88852
G1 X77.439 Y125.308 E5.89967
G1 X77.366 Y125.816 E5.91227
G1 X77.153 Y126.283 E5.92488
G1 X76.817 Y126.671 E5.93747
G1 X76.385 Y126.948 E5.95008
G1 X75.893 Y127.093 E5.96268
G1 X75.380 Y127.093 E5.97528
G1 X74.887 Y126.948 E5.98788
G1 X74.456 Y126.671 E6.00048
G1 X74.120 Y126.283 E6.01309
G1 X73.906 Y125.816 E6.02568
G1 X73.833 Y125.308 E6.03829
G1 X73.906 Y124.800 E6.05089
G1 X74.120 Y124.333 E6.06349
G1 X74.456 Y123.945 E6.07609
G1 X74.887 Y123.668 E6.08869
G1 X75.297 Y123.548 E6.09916
G1 X75.380 Y123.523 E6.10129
G1 X75.620 Y122.997 F9000.000
G1 F1800.000 E1.10129
G92 E0
G1 X80.179 Y105.765 F9000.000
G1 F1800.000 E5.00000
G1 X80.179 Y129.851 F900.000 E5.59140
G1 X71.093 Y129.851 E5.81450
G1 X71.093 Y105.765 E6.40590
G1 X80.093 Y105.765 E6.62686
G1 X80.179 Y105.765 E6.62899
G1 X80.758 Y105.187 F9000.000
G1 X80.758 Y130.429 F900.000 E7.24881
G1 X70.515 Y130.429 E7.50031
G1 X70.515 Y105.187 E8.12013
G1 X80.671 Y105.187 E8.36950
G1 X80.758 Y105.187 E8.37163
G1 X81.336 Y104.608 F9000.000
G1 X81.336 Y131.008 F900.000 E9.01986
G1 X69.936 Y131.008 E9.29977
G1 X69.936 Y104.608 E9.94800
G1 X81.250 Y104.608 E10.22578
G1 X81.336 Y104.608 E10.22791
G1 X81.047 Y105.109 F9000.000
G1 F1800.000 E5.22791
G92 E0
G1 X52.619 Y115.970 F9000.000
G1 F1800.000 E5.00000
G1 X52.250 Y115.601 F900.000 E5.01296
G1 X51.421 Y115.601 E5.03359
G1 X52.619 Y116.799 E5.07572
G1 X52.619 Y117.628 E5.09635
G1 X50.592 Y115.601 E5.16766
G1 X49.763 Y115.601 E5.18828
G1 X52.619 Y118.457 E5.28877
G1 X52.619 Y119.286 E5.30939
G1 X48.934 Y115.601 E5.43905
G1 X48.105 Y115.601 E5.45968
G1 X52.619 Y120.115 E5.61850
G1 X52.619 Y120.944 E5.63913
G1 X47.276 Y115.601 E5.82713
G1 X46.447 Y115.601 E5.84776
G1 X52.619 Y121.773 E6.06494
G1 X52.619 Y122.602 E6.08557
G1 X45.618 Y115.601 E6.33192
G1 X44.788 Y115.601 E6.35254
G1 X52.619 Y123.431 E6.62807
G1 X52.619 Y124.261 E6.64870
G1 X43.959 Y115.601 E6.95340
G1 X43.130 Y115.601 E6.97403
G1 X52.619 Y125.090 E7.30790
G1 X52.619 Y125.919 E7.32853
G1 X42.301 Y115.601 E7.69157
G1 X41.472 Y115.601 E7.71220
G1 X52.619 Y126.748 E8.10442
G1 X52.619 Y127.577 E8.12505
G1 X40.643 Y115.601 E8.54644
G1 X39.814 Y115.601 E8.56707
G1 X52.619 Y128.406 E9.01764
G1 X52.619 Y129.235 E9.03826
G1 X38.985 Y115.601 E9.51801
G1 X38.156 Y115.601 E9.53863
G1 X52.619 Y130.064 E10.04755
G1 X52.619 Y130.893 E10.06817
G1 X37.327 Y115.601 E10.60626
G1 X36.498 Y115.601 E10.62689
G1 X52.619 Y131.722 E11.19415
G1 X52.619 Y132.551 E11.21478
G1 X35.668 Y115.601 E11.81121
G1 X34.839 Y115.601 E11.83184
G1 X52.619 Y133.381 E12.45745
G1 X52.619 Y134.210 E12.47808
G1 X34.010 Y115.601 E13.13286
G1 X33.181 Y115.601 E13.15349
G1 X52.619 Y135.039 E13.83744
G1 X52.619 Y135.868 E13.85807
G1 X32.352 Y115.601 E14.57120
G1 X31.523 Y115.601 E14.59183
G1 X52.619 Y136.697 E15.33413
G1 X52.619 Y137.526 E15.35476
G1 X30.694 Y115.601 E16.12623
G1 X29.865 Y115.601 E16.14686
G1 X52.619 Y138.355 E16.94752
G1 X52.619 Y139.184 E16.96814
G1 X29.036 Y115.601 E17.79797
G1 X28.207 Y115.601 E17.81860
G1 X52.619 Y140.013 E18.67759
G1 X52.619 Y140.842 E18.69822
G1 X27.378 Y115.601 E19.58639
G1 X26.548 Y115.601 E19.60702
G1 X52.619 Y141.672 E20.52437
G1 X52.392 Y142.274 E20.54038
G1 X26.321 Y116.203 E21.45772
G1 X26.321 Y117.033 E21.47836
G1 X51.562 Y142.274 E22.36653
G1 X50.733 Y142.274 E22.38716
G1 X26.321 Y117.862 E23.24616
G1 X26.321 Y118.691 E23.26679
G1 X49.904 Y142.274 E24.09662
G1 X49.075 Y142.274 E24.11725
G1 X26.321 Y119.520 E24.91790
G1 X26.321 Y120.349 E24.93853
G1 X48.246 Y142.274 E25.71000
G1 X47.417 Y142.274 E25.73063
G1 X26.321 Y121.178 E26.47294
G1 X26.321 Y122.007 E26.49357
G1 X46.588 Y142.274 E27.20670
G1 X45.759 Y142.274 E27.22732
G1 X26.321 Y122.836 E27.91128
G1 X26.321 Y123.665 E27.93191
G1 X44.930 Y142.274 E28.58669
G1 X44.101 Y142.274 E28.60732
G1 X26.321 Y124.494 E29.23293
G1 X26.321 Y125.323 E29.25356
G1 X43.272 Y142.274 E29.85000
G1 X42.442 Y142.274 E29.87063
G1 X26.321 Y126.153 E30.43789
G1 X26.321 Y126.982 E30.45852
G1 X41.613 Y142.274 E30.99661
G1 X40.784 Y142.274 E31.01724
G1 X26.321 Y127.811 E31.52615
G1 X26.321 Y128.640 E31.54678
G1 X39.955 Y142.274 E32.02652
G1 X39.126 Y142.274 E32.04715
G1 X26.321 Y129.469 E32.49772
G1 X26.321 Y130.298 E32.51835
G1 X38.297 Y142.274 E32.93974
G1 X37.468 Y142.274 E32.96037
G1 X26.321 Y131.127 E33.35259
G1 X26.321 Y131.956 E33.37322
G1 X36.639 Y142.274 E33.73627
G1 X35.810 Y142.274 E33.75690
G1 X26.321 Y132.785 E34.09077
G1 X26.321 Y133.614 E34.11140
G1 X34.981 Y142.274 E34.41610
G1 X34.152 Y142.274 E34.43673
G1 X26.321 Y134.443 E34.71226
G1 X26.321 Y135.273 E34.73289
G1 X33.323 Y142.274 E34.97924
G1 X32.493 Y142.274 E34.99987
G1 X26.321 Y136.102 E35.21705
G1 X26.321 Y136.931 E35.23768
G1 X31.664 Y142.274 E35.42568
G1 X30.835 Y142.274 E35.44631
G1 X26.321 Y137.760 E35.60514
G1 X26.321 Y138.589 E35.62577
G1 X30.006 Y142.274 E35.75542
G1 X29.177 Y142.274 E35.77605
G1 X26.321 Y139.418 E35.87653
G1 X26.321 Y140.247 E35.89716
G1 X28.348 Y142.274 E35.96847
G1 X27.519 Y142.274 E35.98910
G1 X26.321 Y141.076 E36.03124
G1 X26.321 Y141.905 E36.05187
G1 X26.690 Y142.274 E36.06483
G1 F1800.000 E31.06483
G92 E0
G1 X26.122 Y159.917 F9000.000
G1 F1800.000 E5.00000
G1 X25.753 Y159.548 F360.000 E5.01295
G1 X26.186 Y159.154 E5.02748
G1 X25.754 Y158.721 E5.04266
G1 X26.186 Y158.327 E5.05718
G1 X25.754 Y157.894 E5.07236
G1 X26.186 Y157.500 E5.08689
G1 X25.754 Y157.067 E5.10207
G1 X26.187 Y156.673 E5.11660
G1 X25.753 Y156.240 E5.13181
G1 X26.187 Y155.846 E5.14634
G1 X25.753 Y155.413 E5.16154
G1 X26.186 Y155.019 E5.17607
G1 X25.754 Y154.586 E5.19125
G1 X26.186 Y154.192 E5.20578
G1 X25.754 Y153.759 E5.22096
G1 X26.187 Y153.365 E5.23549
G1 X25.753 Y152.932 E5.25069
G1 X26.186 Y152.538 E5.26522
G1 X25.753 Y152.105 E5.28043
G1 X26.186 Y151.711 E5.29496
G1 X25.754 Y151.279 E5.31014
G1 X26.186 Y150.884 E5.32466
G1 X25.754 Y150.451 E5.33985
G1 X26.187 Y150.057 E5.35437
G1 X25.753 Y149.624 E5.36958
G1 X26.187 Y149.230 E5.38411
G1 X25.753 Y148.797 E5.39931
G1 X26.186 Y148.403 E5.41384
G1 X25.754 Y147.971 E5.42902
G1 X26.186 Y147.576 E5.44355
G1 X25.754 Y147.143 E5.45873
G1 X26.186 Y146.749 E5.47326
G1 X25.753 Y146.316 E5.48844
G1 X26.187 Y145.922 E5.50297
G1 X25.753 Y145.489 E5.51817
G1 X26.186 Y145.095 E5.53270
G1 X25.754 Y144.663 E5.54788
G1 X26.186 Y144.268 E5.56241
G1 X25.754 Y143.836 E5.57759
G1 X26.186 Y143.441 E5.59212
G1 X25.818 Y143.073 E5.60504
G1 F1800.000 E0.60504
G92 E0
G1 X53.544 Y160.495 F9000.000
G1 F1800.000 E5.00000
G1 X53.175 Y160.127 F360.000 E5.01289
